assets/ai/ai-ieee-square.svg

<svg xmlns="http://www.w3.org/2000/svg" width="100%" height="100%" viewBox="-75.52 -43.52 599.04 599.04"><path d="M 48 32 C 21.5 32 0 53.5 0 80 L 0 432 C 0 458.5 21.5 480 48 480 L 400 480 C 426.5 480 448 458.5 448 432 L 448 80 C 448 53.5 426.5 32 400 32 L 48 32 z M 224.125 96 C 225.02285 96.00766 225.92267 96.180969 226.80469 96.568359 C 228.42453 97.007199 230.25204 98.507129 231.71875 99.412109 L 243.68359 116.58984 C 253.53025 129.2287 263.87873 142.47878 274.5293 154.43945 L 300.81641 182.26172 C 324.60433 206.22511 349.85334 227.35175 376.95312 246.0293 L 377.81641 246.16992 C 381.27774 248.40136 383.62414 252.42587 384 256.50977 C 383.856 265.36096 373.78746 267.13556 368.51562 271.9043 C 315.8546 310.58174 268.72266 358.48641 231.55859 411.82617 L 228.56641 414.87109 C 225.55569 416.72873 221.66254 415.97743 218.50781 414.87109 C 214.47735 413.54058 214.03621 409.05485 211.45898 406.32617 C 203.24056 393.39556 192.73876 381.24597 183.79883 369.19336 C 178.49088 363.77078 174.09137 358.02887 168.66602 352.25391 C 138.10089 318.3183 103.76095 288.5598 67.84375 263.49414 C 65.293136 260.90698 63.154788 257.47323 64.332031 253.3125 C 65.429416 248.68558 70.699935 245.94599 74.248047 243.13867 C 119.10116 211.94643 160.21288 171.25338 194.94336 127.67383 L 216.59375 99.105469 C 218.75281 97.446019 221.43146 95.977021 224.125 96 z M 223.19922 137.27539 C 219.5822 137.34315 216.01452 138.45709 212.71289 141.06055 C 202.57166 148.43494 192.95776 155.93792 183.2832 164.41602 C 182.46582 164.94682 181.50513 166.0585 180.98633 166.58008 C 158.45441 186.95823 136.14227 209.26659 117.92773 232.78711 C 112.78747 239.55904 107.35457 246.16942 105.37305 254.20312 C 105.30634 258.50978 105.95202 262.53972 108.24414 265.80469 C 123.66014 289.07772 144.07012 311.32647 164.41016 330.43359 C 181.94733 346.29453 198.84343 363.70205 218.88086 374.32812 C 225.47945 377.45941 232.90693 373.81528 238.41211 369.86914 C 265.6333 350.46507 289.95011 326.14073 313.00195 301.00195 C 323.65687 287.73773 335.84246 275.6289 341.83984 260.43945 C 343.46917 254.4281 340.89246 249.29256 337.97656 244.76172 C 319.9939 218.72717 298.10136 194.10047 274.5293 171.94336 L 272.98242 171.04102 C 264.47199 162.69108 254.77361 154.52165 245.46289 147.31055 C 239.35153 142.04283 231.15665 137.12633 223.19922 137.27539 z M 224.48438 145.02734 C 232.16091 145.09253 239.18397 152.07489 245.46289 156.54297 C 277.82835 182.9395 308.37141 213.15335 331.64453 247.27148 C 334.57903 251.67564 335.90425 258.51077 333.27344 263.49414 C 327.23994 273.69063 319.09832 282.99661 311.38086 292.44727 L 311.38086 292.96094 C 292.13712 313.71478 271.8173 335.04862 249.85742 352.625 C 239.14014 359.23218 229.30136 373.66334 215.49609 364.72461 C 184.06398 341.45161 153.9857 312.51704 128.48828 281.48438 C 124.16579 274.66222 117.41346 269.0723 114.4082 261.33594 C 110.21076 250.85576 119.4625 243.33917 124.75586 235.44727 C 150.75461 202.96109 183.0445 171.10521 216.59375 147.61719 C 219.29467 145.75262 221.92553 145.00562 224.48438 145.02734 z M 223.41602 169.03125 L 220.48828 178.55469 L 205.80273 221.17188 C 209.47991 221.5516 214.03371 221.17105 217.64453 221.55078 L 217.64453 221.9043 L 215.49609 270.11133 L 215.86719 270.61719 C 220.56592 271.08328 226.43068 271.32084 231.21875 270.49414 L 231.21875 269.73438 L 229.30078 222.97852 L 229.58984 221.39648 L 242.50977 221.17383 C 236.06577 203.92288 229.8149 186.49832 223.79492 169.03125 L 223.41602 169.03125 z M 188.56836 230.98438 C 183.19368 231.28579 178.2823 233.66875 173.43555 235.80859 C 165.19963 239.9926 153.08215 246.31709 154.41797 257.76172 C 156.18182 264.01096 162.86113 268.04776 168.14648 270.61719 C 197.35866 283.65717 236.1374 284.10159 266.97852 274.36719 L 266.98047 274.36719 C 274.59402 271.39514 284.81493 267.08351 286.21094 257.63281 C 286.12961 249.82439 277.97188 244.90888 272.10938 241.91797 L 272.10938 241.54883 C 274.15323 240.73028 276.50359 239.99382 278.62109 239.76953 L 278.62109 239.55859 C 268.29174 237.6836 258.31774 234.94586 248.3125 232.26562 C 250.24041 236.71412 251.62963 241.40449 253.23633 246.02734 C 256.24304 245.05328 259.32627 244.31256 262.57031 243.86523 C 267.84621 245.94561 275.39924 248.92192 276.14844 255.60742 C 276.73507 261.85665 269.98291 264.90251 265.71875 267.43945 C 243.09606 275.77978 217.644 276.59317 194.05078 270.25195 C 187.5335 268.17157 178.12824 265.50167 177.32031 257.09375 C 181.94578 246.02887 193.91023 243.72355 203.90234 241.03516 C 198.76757 237.68227 193.54708 234.71551 188.56836 230.98438 z M 215.20312 283.88281 C 214.32704 301.00116 214.11185 316.8454 212.86133 334.00586 C 219.54922 334.62338 227.09459 335.21106 234.22656 334.16016 L 232.0957 286.32031 L 231.7207 284.04297 C 226.29134 284.25915 221.1513 284.47714 215.20312 283.88281 z"/></svg>

<svg xmlns="http://www.w3.org/2000/svg" width="100%" height="100%" viewBox="-75.52 -43.52 599.04 599.04"><path d="M48 32C21.5 32 0 53.5 0 80v352c0 26.5 21.5 48 48 48h352c26.5 0 48-21.5 48-48V80c0-26.5-21.5-48-48-48H48zm176.125 64a6.743 6.743 0 012.68.568c1.62.44 3.447 1.94 4.914 2.844l11.965 17.178c9.846 12.639 20.195 25.889 30.845 37.85l26.287 27.822c23.788 23.963 49.037 45.09 76.137 63.767l.863.14c3.462 2.232 5.808 6.257 6.184 10.34-.144 8.852-10.213 10.627-15.484 15.395-52.661 38.678-99.793 86.582-136.957 139.922l-2.993 3.045c-3.01 1.858-6.903 1.106-10.058 0-4.03-1.33-4.472-5.816-7.049-8.545-8.218-12.93-18.72-25.08-27.66-37.133-5.308-5.422-9.708-11.164-15.133-16.94-30.565-33.935-64.905-63.693-100.822-88.759-2.55-2.587-4.69-6.02-3.512-10.182 1.097-4.626 6.368-7.366 9.916-10.173 44.853-31.193 85.965-71.886 120.695-115.465l21.65-28.569c2.16-1.659 4.838-3.128 7.532-3.105zm-.926 41.275c-3.617.068-7.184 1.182-10.486 3.786-10.141 7.374-19.755 14.877-29.43 23.355-.817.53-1.778 1.643-2.297 2.164-22.532 20.378-44.844 42.687-63.058 66.207-5.14 6.772-10.573 13.382-12.555 21.416-.067 4.307.579 8.337 2.871 11.602 15.416 23.273 35.826 45.521 56.166 64.629 17.537 15.86 34.433 33.268 54.47 43.894 6.6 3.131 14.027-.513 19.532-4.459 27.221-19.404 51.538-43.728 74.59-68.867 10.655-13.264 22.84-25.373 28.838-40.563 1.63-6.01-.948-11.146-3.863-15.677-17.983-26.035-39.876-50.662-63.448-72.819l-1.547-.902c-8.51-8.35-18.208-16.52-27.52-23.73-6.11-5.268-14.305-10.185-22.263-10.036zm1.285 7.752c7.677.066 14.7 7.048 20.979 11.516 32.365 26.397 62.908 56.61 86.182 90.728 2.934 4.405 4.26 11.24 1.628 16.223-6.033 10.197-14.175 19.503-21.892 28.953v.514c-19.244 20.754-39.564 42.088-61.524 59.664-10.717 6.607-20.556 21.038-34.36 12.1-31.433-23.273-61.511-52.208-87.009-83.24-4.322-6.823-11.075-12.413-14.08-20.15-4.197-10.48 5.055-17.996 10.348-25.888 25.999-32.486 58.288-64.342 91.838-87.83 2.7-1.864 5.332-2.611 7.89-2.59zm-1.068 24.004l-2.928 9.524-14.685 42.617c3.677.38 8.23 0 11.842.379v.353l-2.149 48.207.371.506c4.699.466 10.564.704 15.352-.123v-.76L229.3 222.98l.289-1.583 12.92-.222a2167.06 2167.06 0 01-18.715-52.143h-.379zm-34.848 61.953c-5.374.302-10.286 2.685-15.132 4.825-8.236 4.184-20.354 10.508-19.018 21.953 1.764 6.249 8.443 10.286 13.728 12.855 29.213 13.04 67.991 13.485 98.833 3.75h.001c7.614-2.972 17.835-7.283 19.23-16.734-.08-7.809-8.238-12.724-14.1-15.715v-.37c2.043-.818 4.394-1.554 6.511-1.778v-.211c-10.33-1.875-20.303-4.613-30.308-7.293 1.927 4.448 3.317 9.138 4.923 13.761a54.098 54.098 0 019.334-2.162c5.276 2.08 12.83 5.057 13.578 11.742.587 6.25-6.165 9.296-10.43 11.832-22.622 8.34-48.074 9.154-71.667 2.813-6.517-2.08-15.923-4.75-16.73-13.158 4.625-11.065 16.59-13.37 26.581-16.059-5.134-3.353-10.355-6.32-15.334-10.05zm26.635 52.899c-.876 17.118-1.091 32.962-2.342 50.123 6.688.617 14.234 1.205 21.366.154l-2.131-47.84-.375-2.277c-5.43.216-10.57.434-16.518-.16z"/></svg>
